static/assets/images/networks/scroll-mono.svg

<svg width="254" height="256" viewBox="0 0 254 256" fill="none" xmlns="http://www.w3.org/2000/svg">
<path d="M31.6623 98.6834C21.9431 89.236 15.1297 77.0162 15.1297 62.5373V60.997C15.9313 36.2493 35.7703 16.3279 59.9178 15.6091H213.62C217.628 15.8145 220.835 18.6898 220.835 22.8999V156.188C224.341 156.805 226.044 157.318 229.451 158.551C232.157 159.578 235.864 161.734 235.864 161.734V22.8999C235.663 10.2693 225.844 0.10331 213.52 0.10331H59.8176C26.6524 0.616739 0 28.445 0 62.5373C0 82.356 8.81734 99.2995 23.2457 111.211C23.751 111.626 24.2309 112.092 24.9167 112.453C25.5906 112.808 26.4634 113.06 27.7546 113.06C32.2635 113.06 35.4698 109.363 35.2694 105.358C35.173 102.101 33.8736 100.836 31.9047 98.9196C31.825 98.842 31.7441 98.7633 31.6623 98.6834Z" fill="black"/>
<path d="M209.612 164.916H89.0755C80.9595 165.019 74.4467 171.694 74.4467 180.011V197.776C74.6471 205.992 81.4606 212.974 89.5765 212.974H98.494V197.776H89.5765V180.423C89.5765 180.423 91.7808 180.423 94.4862 180.423C109.716 180.423 120.939 194.901 120.939 210.407C120.939 224.167 108.714 241.726 88.2739 240.289C70.1382 239.057 60.319 222.524 60.319 210.407V59.867C60.319 53.0896 54.9084 47.5445 48.2954 47.5445H36.2717V62.9477H45.1892V210.509C45.0997 215.869 45.708 220.753 46.8945 225.16C52.3463 245.409 70.006 255.59 88.2739 255.59L209.713 256C234.161 256 254 235.668 254 210.509C254 197.397 248.583 185.567 239.934 177.245C239.934 177.244 239.933 177.244 239.932 177.243C239.932 177.243 239.932 177.242 239.931 177.242C239.881 177.193 239.83 177.144 239.779 177.095C231.851 169.539 221.241 164.916 209.612 164.916ZM238.868 211.434C238.368 227.556 225.442 240.494 209.611 240.494L125.145 240.186C131.858 232.177 135.966 221.805 135.966 210.509C135.966 192.745 125.646 180.525 125.646 180.525H209.711C225.843 180.525 238.968 193.976 238.968 210.509L238.868 211.434Z" fill="black"/>
<path d="M177.146 65.7222H86.2676V50.3192H177.146C181.254 50.3192 184.661 53.7078 184.661 58.0207C184.661 62.2308 181.355 65.7222 177.146 65.7222Z" fill="black"/>
<path d="M193.178 101.969H86.2676V86.5663H193.077C197.186 86.5663 200.592 89.9549 200.592 94.2679C200.692 98.478 197.286 101.969 193.178 101.969Z" fill="black"/>
<path d="M177.146 138.217H86.2676V122.813H177.146C181.254 122.813 184.661 126.202 184.661 130.515C184.661 134.725 181.355 138.217 177.146 138.217Z" fill="black"/>
<path fill-rule="evenodd" clip-rule="evenodd" d="M235.864 22.7966V161.734C235.864 161.734 232.157 159.578 229.451 158.551C226.044 157.318 224.341 156.805 220.835 156.188V22.8999C220.835 18.6898 217.628 15.8145 213.62 15.6091H59.9178C35.7703 16.3279 15.9313 36.2493 15.1297 60.997V62.5373C15.1297 77.0162 21.9431 89.236 31.6623 98.6834L31.9047 98.9196C33.8736 100.836 35.173 102.101 35.2694 105.358C35.4698 109.363 32.2635 113.06 27.7546 113.06C26.4634 113.06 25.5906 112.808 24.9167 112.453C24.8656 112.416 24.816 112.379 24.7669 112.342C24.5157 112.151 24.2746 111.947 23.8954 111.627L23.6465 111.416C17.6347 106.384 11.5226 99.607 7.61498 92.4188C3.00592 83.793 0 73.9351 0 62.434C0 28.3418 26.6524 0.51344 59.8176 0H213.52C225.844 0 235.663 10.1661 235.864 22.7966ZM239.931 177.242C239.932 177.242 239.932 177.243 239.932 177.243C239.933 177.244 239.934 177.244 239.934 177.245C239.883 177.195 239.831 177.145 239.779 177.095C239.83 177.144 239.881 177.193 239.931 177.242ZM86.2676 65.7222H177.146C181.355 65.7222 184.661 62.2308 184.661 58.0207C184.661 53.7078 181.254 50.3192 177.146 50.3192H86.2676V65.7222ZM86.2676 101.969H193.178C197.286 101.969 200.692 98.478 200.592 94.2679C200.592 89.9549 197.186 86.5663 193.077 86.5663H86.2676V101.969Z" fill="black"/>
</svg>

<svg xmlns="http://www.w3.org/2000/svg" fill="none" viewBox="0 0 254 256"><path fill="#000" d="M31.662 98.683C21.943 89.236 15.13 77.016 15.13 62.537v-1.54c.801-24.748 20.64-44.67 44.788-45.388H213.62c4.008.206 7.215 3.08 7.215 7.29v133.289c3.506.617 5.209 1.13 8.616 2.363 2.706 1.027 6.413 3.183 6.413 3.183V22.9C235.663 10.27 225.844.103 213.52.103H59.818C26.652.617 0 28.445 0 62.537 0 82.356 8.817 99.3 23.246 111.211c.505.415.985.881 1.67 1.242.675.355 1.547.607 2.839.607 4.509 0 7.715-3.697 7.514-7.702-.096-3.257-1.395-4.522-3.364-6.438z"/><path fill="#000" d="M209.612 164.916H89.076c-8.116.103-14.63 6.778-14.63 15.095v17.765c.201 8.216 7.015 15.198 15.13 15.198h8.918v-15.198h-8.918v-17.353h4.91c15.23 0 26.453 14.478 26.453 29.984 0 13.76-12.225 31.319-32.665 29.882-18.136-1.232-27.955-17.765-27.955-29.882V59.867c0-6.777-5.41-12.322-12.024-12.322H36.272v15.403h8.917v147.561c-.09 5.36.519 10.244 1.706 14.651 5.451 20.249 23.111 30.43 41.379 30.43l121.439.41C234.161 256 254 235.668 254 210.509c0-13.112-5.417-24.942-14.066-33.264l-.002-.002-.001-.001-.152-.147c-7.928-7.556-18.538-12.179-30.167-12.179m29.256 46.518c-.5 16.122-13.426 29.06-29.257 29.06l-84.466-.308c6.713-8.009 10.821-18.381 10.821-29.677 0-17.764-10.32-29.984-10.32-29.984h84.065c16.132 0 29.257 13.451 29.257 29.984zM177.146 65.722H86.268V50.32h90.878c4.108 0 7.515 3.389 7.515 7.702 0 4.21-3.306 7.701-7.515 7.701"/><path fill="#000" d="M193.178 101.969H86.268V86.566h106.809c4.109 0 7.515 3.389 7.515 7.702.1 4.21-3.306 7.701-7.414 7.701m-16.032 36.248H86.268v-15.404h90.878c4.108 0 7.515 3.389 7.515 7.702 0 4.21-3.306 7.702-7.515 7.702"/><path fill="#000" fill-rule="evenodd" d="M235.864 22.797v138.937s-3.707-2.156-6.413-3.183c-3.407-1.233-5.11-1.746-8.616-2.363V22.9c0-4.21-3.207-7.085-7.215-7.29H59.918C35.77 16.327 15.93 36.25 15.13 60.996v1.54c0 14.48 6.813 26.699 16.532 36.146l.243.237c1.969 1.916 3.268 3.181 3.364 6.438.2 4.005-3.005 7.702-7.514 7.702-1.292 0-2.164-.252-2.838-.607l-.15-.111c-.251-.191-.492-.395-.872-.715l-.248-.211c-6.012-5.032-12.124-11.809-16.032-18.997C3.005 83.793 0 73.935 0 62.434 0 28.342 26.652.514 59.818 0H213.52c12.324 0 22.143 10.166 22.344 22.797m4.067 154.445.001.001.002.002-.155-.15zM86.268 65.722h90.878c4.209 0 7.515-3.491 7.515-7.701 0-4.313-3.407-7.702-7.515-7.702H86.268zm0 36.247h106.91c4.108 0 7.514-3.491 7.414-7.701 0-4.313-3.406-7.702-7.515-7.702H86.267z" clip-rule="evenodd"/></svg>
